X:36
T: Die Brombeerpflueckerin
N: Q0147B
O: Mitteleuropa, Deutschland (BRD) , Bayern, Bayerischer Wald, Zwiesel
N: Dreistimmig notiert, Oberstimme kodiert.
N: Vierte Zeile refrainartig.
R: Ballade, Verfuehrung, Schwangerschaft
M: 6/8
L: 1/16
K: G
G2 | B4B2d3dBB | c4c2d6 |
c4A2d4c2 | B4B2B4
G2 | B4B2d3dB2 | c4d2f4
ff | a4fff4c2 | b4g2d4
B2 | c4d2f3dc2 | B6z4

@@@ Tune index: 1639
